images/identificeer.svg

<svg height="60" viewBox="0 0 60 60" width="60" xmlns="http://www.w3.org/2000/svg"><g fill="none" fill-rule="evenodd"><path d="m0 0h60v60h-60z" fill="#000"/><path d="m18.4056822 49.1324112c-.2153271-3.4398505-.516785-8.256-.5643364-9.0096448.0035888-.9635888.0475514-1.5700935.1336822-1.8051589.0870281-.0574206.3723365-.2153271 1.0658692-.3759253l.1516262-.0349906c3.3438504-.772486 6.8016448-1.5700935 8.1070654-4.4285608.4934579-1.0793271.8281121-2.8423177-.3732337-5.1140187-2.1604486-4.0795514-2.7678504-7.6459065-1.627514-9.540785.7419813-1.2327477 2.1039253-1.4920374 3.1168598-1.4920374 1.0120374 0 2.3748785.2592897 3.1159627 1.4920374 1.1412336 1.8948785.5329345 5.4612336-1.6266169 9.540785-1.202243 2.271701-.8666916 4.0346916-.3741308 5.1140187 1.3063177 2.8584673 4.7632149 3.6560748 8.1070654 4.4285608l.1516262.0349906c.6944299.1605982.9797383.3185047 1.0658691.3759253.0861309.2350654.1309907.8415701.1336823 1.8051589-.0466542.7536448-.3490094 5.5697943-.5643365 9.0096448-3.0818691 1.4920374-6.4840374 2.2833645-10.0091215 2.2833645s-6.9281495-.7913271-10.0100187-2.2833645zm-12.99140183-20.7180561c0-6.1431028 2.39282243-11.9192523 6.73704673-16.2643738 4.3442243-4.34422429 10.1203738-6.73704672 16.2643738-6.73704672s11.9201496 2.39282243 16.2643739 6.73704672c4.3442243 4.3451215 6.7370467 10.121271 6.7370467 16.2643738 0 6.144-2.3928224 11.9201496-6.7370467 16.2652711-.9312898.9303925-1.9316636 1.7656822-2.9840748 2.5139439.2090467-3.3761495.4324486-6.9748037.4324486-6.9748037 0-2.8835888-.2269907-4.5478879-3.6318505-5.334729-3.9297196-.9079626-7.588486-1.7037757-5.8174205-5.0521122 5.3939439-10.1894579 1.4292336-15.6381308-4.2634767-15.639028-5.6927102.0008972-9.6574205 5.4495701-4.2643738 15.639028 1.7719626 3.3483365-1.8877009 4.1441496-5.8165234 5.0521122-3.405757.7868411-3.6318504 2.4511402-3.6318504 5.334729 0 0 .2225046 3.5986542.4315514 6.9748037-1.0524112-.7482617-2.0527851-1.5835514-2.9831776-2.5139439-4.3442243-4.3451215-6.73704673-10.1212711-6.73704673-16.2652711zm52.13517753 22.5510281-7.4592897-7.4592897c7.1892337-10.2998131 6.1960374-24.5777944-2.9966355-33.76957014-5.1570841-5.1579813-11.9183551-7.73652336-18.6778318-7.73652336-6.7603738 0-13.5207476 2.57854206-18.67872894 7.73652336-10.31596261 10.31596264-10.31596261 27.04059814 0 37.35656074 5.15798134 5.1579813 11.91835514 7.7365234 18.67872894 7.7365234 5.2871776 0 10.5707664-1.5853458 15.0917384-4.7398879l7.4583925 7.4583925z" fill="#fff"/></g></svg>

<?xml version="1.0" encoding="UTF-8"?>
<svg width="60px" height="60px" viewBox="0 0 60 60" version="1.1" xmlns="http://www.w3.org/2000/svg" xmlns:xlink="http://www.w3.org/1999/xlink">
    <!-- Generator: Sketch 54.1 (76490) - https://sketchapp.com -->
    <title>identificeer</title>
    <desc>Created with Sketch.</desc>
    <g id="identificeer" stroke="none" stroke-width="1" fill="none" fill-rule="evenodd">
        <rect fill="#000000" x="0" y="0" width="60" height="60"></rect>
        <path d="M18.4056822,49.1324112 C18.1903551,45.6925607 17.8888972,40.8764112 17.8413458,40.1227664 C17.8449346,39.1591776 17.8888972,38.5526729 17.975028,38.3176075 C18.0620561,38.2601869 18.3473645,38.1022804 19.0408972,37.9416822 L19.1925234,37.9066916 C22.5363738,37.1342056 25.9941682,36.3365981 27.2995888,33.4781308 C27.7930467,32.3988037 28.1277009,30.6358131 26.9263551,28.3641121 C24.7659065,24.2845607 24.1585047,20.7182056 25.2988411,18.8233271 C26.0408224,17.5905794 27.4027664,17.3312897 28.4157009,17.3312897 C29.4277383,17.3312897 30.7905794,17.5905794 31.5316636,18.8233271 C32.6728972,20.7182056 32.0645981,24.2845607 29.9050467,28.3641121 C28.7028037,30.6358131 29.0383551,32.3988037 29.5309159,33.4781308 C30.8372336,36.3365981 34.2941308,37.1342056 37.6379813,37.9066916 L37.7896075,37.9416822 C38.4840374,38.1022804 38.7693458,38.2601869 38.8554766,38.3176075 C38.9416075,38.5526729 38.9864673,39.1591776 38.9891589,40.1227664 C38.9425047,40.8764112 38.6401495,45.6925607 38.4248224,49.1324112 C35.3429533,50.6244486 31.940785,51.4157757 28.4157009,51.4157757 C24.8906168,51.4157757 21.4875514,50.6244486 18.4056822,49.1324112 L18.4056822,49.1324112 Z M5.41428037,28.4143551 C5.41428037,22.2712523 7.8071028,16.4951028 12.1513271,12.1499813 C16.4955514,7.80575701 22.2717009,5.41293458 28.4157009,5.41293458 C34.5597009,5.41293458 40.3358505,7.80575701 44.6800748,12.1499813 C49.0242991,16.4951028 51.4171215,22.2712523 51.4171215,28.4143551 C51.4171215,34.5583551 49.0242991,40.3345047 44.6800748,44.6796262 C43.748785,45.6100187 42.7484112,46.4453084 41.696,47.1935701 C41.9050467,43.8174206 42.1284486,40.2187664 42.1284486,40.2187664 C42.1284486,37.3351776 41.9014579,35.6708785 38.4965981,34.8840374 C34.5668785,33.9760748 30.9081121,33.1802617 32.6791776,29.8319252 C38.0731215,19.6424673 34.1084112,14.1937944 28.4157009,14.1928972 C22.7229907,14.1937944 18.7582804,19.6424673 24.1513271,29.8319252 C25.9232897,33.1802617 22.2636262,33.9760748 18.3348037,34.8840374 C14.9290467,35.6708785 14.7029533,37.3351776 14.7029533,40.2187664 C14.7029533,40.2187664 14.9254579,43.8174206 15.1345047,47.1935701 C14.0820935,46.4453084 13.0817196,45.6100187 12.1513271,44.6796262 C7.8071028,40.3345047 5.41428037,34.5583551 5.41428037,28.4143551 L5.41428037,28.4143551 Z M57.5494579,50.9653832 L50.0901682,43.5060935 C57.2794019,33.2062804 56.2862056,18.9282991 47.0935327,9.73652336 C41.9364486,4.57854206 35.1751776,2 28.4157009,2 C21.6553271,2 14.8949533,4.57854206 9.73697196,9.73652336 C-0.578990654,20.052486 -0.578990654,36.7771215 9.73697196,47.0930841 C14.8949533,52.2510654 21.6553271,54.8296075 28.4157009,54.8296075 C33.7028785,54.8296075 38.9864673,53.2442617 43.5074393,50.0897196 L50.9658318,57.5481121 L57.5494579,50.9653832 Z" fill="#FFFFFF"></path>
    </g>
</svg>
